X:77
T:Highland Man Who Kissed His Grannie (r)
B:NFID.237b
077highl_m
S:PT
N:This is a version of "Tie the Bonnet" (ONMI #1350). Source
has the drone note as D, which I'm sure is the way that Turbet
played it. I personally think it should be E, so in the ABC
I changed measures 5-7 accordingly. See which version you prefer!
(And if you don't care about drones, just play A.)
L:1/8
M:C
R:reel
Q:360
K:Am
"A minor"[A2D2] [AD]g ^fdec|[A2D2] [AD]A BAGB|[A2D2] Ag ^fdef|g2gd BGGB|
[A2E2] [AE]g ^fdec|[A2E2] AA (3cBA GB|[A2E2] Ag ^fdef|g2gd BGGB:|
eaa^f gfed|^cAeA cAeA|eaaf g^fef|g2gd BGGB|
eaa^f (3agf ed|^cAeA cAeA|a^fge fdef|g2gd BGGB:|

%%%

